assets/svg/icon_2fa_authy.svg

<svg width="24" height="24" viewBox="0 0 24 24" fill="none" xmlns="http://www.w3.org/2000/svg">
<path d="M10.8127 8.95259L14.1456 12.399C14.629 12.8989 15.4177 12.8989 15.8926 12.399C16.3676 11.8991 16.376 11.0836 15.8926 10.5925L12.5597 7.14607C10.1682 4.69937 6.31792 4.65552 3.87547 7.02329L3.74826 7.14607C1.39062 9.73308 1.42454 13.7232 3.80763 16.1787L7.14055 19.6251C7.62395 20.125 8.41266 20.125 8.88758 19.6251C9.3625 19.1252 9.37098 18.3097 8.88758 17.8186L5.57161 14.3897C4.12989 12.8989 4.10445 10.4434 5.53769 8.92628C6.97093 7.40915 9.35402 7.453 10.8127 8.96136V8.95259ZM15.1124 4.36613C14.629 4.86599 14.629 5.68156 15.1124 6.17265L18.4453 9.61907C19.8871 11.1099 19.9125 13.5654 18.4708 15.0825C17.0291 16.5996 14.6545 16.5558 13.1958 15.0474L9.86286 11.601C9.37946 11.1011 8.59075 11.1011 8.11583 11.601C7.64091 12.1008 7.63243 12.9164 8.11583 13.4075L11.4488 16.8539C13.8234 19.3094 17.6821 19.362 20.1245 16.9767L20.2517 16.8539C22.6094 14.2669 22.5755 10.2768 20.1924 7.82132L16.851 4.3749C16.3676 3.87503 15.5789 3.87503 15.1039 4.3749L15.1124 4.36613Z" fill="#EC1C24"/>
</svg>

<svg xmlns="http://www.w3.org/2000/svg" width="24" height="24" fill="none"><path fill="#EC1C24" d="m10.813 8.953 3.333 3.446c.483.5 1.272.5 1.747 0s.483-1.315 0-1.806L12.56 7.145a6.125 6.125 0 0 0-8.685-.123l-.127.123c-2.357 2.587-2.323 6.577.06 9.033l3.333 3.446c.483.5 1.272.5 1.747 0s.483-1.315 0-1.806l-3.316-3.43c-1.442-1.49-1.468-3.946-.034-5.463s3.816-1.473 5.275.035zm4.3-4.587a1.306 1.306 0 0 0 0 1.807l3.332 3.446c1.442 1.49 1.468 3.946.026 5.464-1.442 1.517-3.816 1.473-5.275-.036l-3.333-3.446c-.484-.5-1.272-.5-1.747 0s-.484 1.315 0 1.806l3.333 3.447a6.09 6.09 0 0 0 8.676.123l.127-.123c2.357-2.587 2.324-6.577-.06-9.033l-3.341-3.446c-.483-.5-1.272-.5-1.747 0z"/></svg>
